X:1
T:Bandung, CM
T:Bandung, CM
T:Arranged from Romberg, 1840
T:Public Domain Courtesy of the Cyber Hymnal™
C:Arranged from Romberg, 1840
Z:Public Domain
Z:Courtesy of the Cyber Hymnal™
%%score ( 1 2 ) 3
L:1/8
Q:1/4=100
M:2/4
K:Bb
V:1 treble 
V:2 treble 
V:3 bass 
V:1
 [DF]2 [DF][DB] | [Fd]3 [Ec] | ([DB][FA]) ([EG][DF]) | [DF]3 [DF] | [DF]2 (Bc) | [Fd]2 [FB]2 | %6
 [Fc]3 [DF] | [DF]2 (Bc) | [Fd]3 [Ec] | ([DB][FA]) ([EG][DF]) | [DF]3 [FB] | [Ff]2 (f/e/d/c/) | %12
 [DB]2 A2 | [DB]4 |] %14
V:2
 x4 | x4 | x4 | x4 | x2 F2 | x4 | x4 | x2 D2 | x4 | x4 | x4 | x2 G2 | x2 (CE) | x4 |] %14
V:3
 B,,2 B,,B,, | B,,3 B,, | B,,2 B,,2 | B,,3 B, | B,2 B,2 | B,2 D,2 | F,3 B,, | B,,2 B,,2 | %8
 B,,3 B,, | B,2 B,,2 | B,,3 B,, | D,2 E,2 | F,2 F,2 | [B,,D,]4 |] %14

